X: 21481
T: Kate of Kinross
%R: air, waltz
B: James Oswald "The Caledonian Pocket Companion" v.2 p.148 #1
Z: 2018 John Chambers <jc:trillian.mit.edu>
M: 3/4
L: 1/8
K: Am
|: "_Slow"\
A2BABd | e2(dB)A2 | G4g2 | (dB)(AB)G2 |\
c4(ed) | (cd)(e^f)g2 | B2(Ae)(dc) | (c2B2)A2 :|
|:\
a>bc'2b2 | (ac')(ag)e2 | g>ab2a2 | (ge)(dB)(AG) |\
(ab)(c'b)(a^g) | (a=g)(fe)(dc) | B2(fe)(dc) | (c2B2)A2 :|
|:\
A2(ag)(e/d/)B | A2(a/g/)e (d/B/)A | G3g (d/B/)A | G3A (B/A/)G |\
c2(g/e/)c (g/e/)c | d2(ed)(eg) | a2(ge)(dc) | (c2B2)A2 :|
|:\
a3g e>g | a3ge2 | g3e (d/e/)g | (ed)(cB)(AG) |\
A2(a/b/)c' (b/a/)^g | a>=g (3(fge) (3(dec) | B2(fe)(dc) | (c2B2)A2 :|


